src/items/27-first-aid-kit.svg

<svg xmlns="http://www.w3.org/2000/svg" viewBox="0 0 48 48" width="96px" height="96px"><path fill="#455A64" d="M19,12V8h10v4h2V8c0-1.104-0.896-2-2-2H19c-1.104,0-2,0.896-2,2v4H19z"/><path fill="#F44336" d="M44,37c0,2.762-2.238,5-5,5H9c-2.762,0-5-2.238-5-5V17c0-2.762,2.238-5,5-5h30c2.762,0,5,2.238,5,5V37z"/><path fill="#FFF" d="M24 17A10 10 0 1 0 24 37A10 10 0 1 0 24 17Z"/><path fill="#F44336" d="M22 21H26V33H22z"/><path fill="#F44336" d="M18 25H30V29H18z"/></svg>

<svg xmlns="http://www.w3.org/2000/svg" viewBox="0 0 48 48" width="96" height="96"><path fill="#455A64" d="M19 12V8h10v4h2V8a2 2 0 00-2-2H19a2 2 0 00-2 2v4h2z"/><path fill="#F44336" d="M44 37a5 5 0 01-5 5H9a5 5 0 01-5-5V17a5 5 0 015-5h30a5 5 0 015 5v20z"/><path fill="#FFF" d="M24 17a10 10 0 100 20 10 10 0 100-20z"/><path fill="#F44336" d="M22 21h4v12h-4z"/><path fill="#F44336" d="M18 25h12v4H18z"/></svg>
